!!!COM: Haydn, Franz Joseph
!!!OTL: String Quartet in E-flat major
!!!OPS: Opus 09
!!!ONM: No. 2
!!!OMD: Finale: Allegro molto 
!!!OMV: 4
!!!SCT: H /disk/dos2/musedata_2000/haydn/traut/quart/op09n2/stage1/04
!!!SCA: Thematisch-bibliographisches Werkevererzeichnis (A. van Hoboken)
!!!YOR: Trautwein Edition
!!!ENC: Frances Bennion
!!!CDT: 1732/3/31/-1809/5/31/
!!!CNT: Oesterreich
!!!YEC: Copyright (c) 1994, 2000 Center for Computer Assisted Research in the Humanities
!!!YEM: Rights to all derivative editions reserved.
!!!YEM: Refer to licensing agreement for further details.
!!!YEN: United States of America
**kern	**kern	**kern	**kern
*k[b-e-a-]	*k[b-e-a-]	*k[b-e-a-]	*k[b-e-a-]
*E-:	*E-:	*E-:	*E-:
*clefF4	*clefC3	*clefG	*clefG
*M4/4	*M4/4	*M4/4	*M4/4
2..r	2..r	2..r	2..r
8r	8r	8r	16dd
.	.	.	16ee-
=1	=1	=1	=1
4E-	4r	4r	8e-
.	.	.	4e-
2.r	4G	4B-	.
.	.	.	4e-
.	4A-	4c	.
.	.	.	4e-
.	4G	4B-	.
.	.	.	16dd
.	.	.	16ee-
=2	=2	=2	=2
4E-	4r	4r	8e-
.	.	.	4e-
2.r	4B-	4d-	.
.	.	.	4e-
.	4A-	4c	.
.	.	.	4e-
.	4G	4B-	.
.	.	.	16dd
.	.	.	16ee-
=3	=3	=3	=3
4E-	4r	4r	8e-
.	.	.	4e-
2.r	4A-	4c	.
.	.	.	4e-
.	4G	4B-	.
.	.	.	4e-
.	4F	4A-	.
.	.	.	16dd
.	.	.	16ee-
=4	=4	=4	=4
4E-	4r	4r	8e-
.	.	.	4e-
2.r	4G	4B-	.
.	.	.	4e-
.	4F	4A-	.
.	.	.	4e-
.	4E-	4G	.
.	.	.	8e-
=5	=5	=5	=5
1BB-	1F	1A-	16d
.	.	.	16e-
.	.	.	16f
.	.	.	16g
.	.	.	16a-
.	.	.	16b-
.	.	.	16cc
.	.	.	16b-
.	.	.	16a-
.	.	.	16g
.	.	.	16f
.	.	.	16e-
.	.	.	16d
.	.	.	16c
.	.	.	16B-
.	.	.	16A-
=6	=6	=6	=6
4E-	4E-	4G	16G
.	.	.	16e-
.	.	.	16d
.	.	.	16e-
2.r	2.r	2.r	16B-
.	.	.	16e-
.	.	.	16A-
.	.	.	16e-
.	.	.	4G
.	.	.	4r
=7	=7	=7	=7
2r	16e-	16g	[3..gg
.	16f	16a-	.
.	16g	16b-	.
.	16f	16a-	.
.	16e-	16g	.
.	16f	16a-	.
.	16d	16f	.
.	16e-	16g	.
8r	4c	4e-	.
.	.	.	24gg]
8d	.	.	8bb
8e-	4r	4r	8ccc
8E-	.	.	8gg
=8	=8	=8	=8
4D	4d	16f	[3..ff
.	.	16b-	.
.	.	16a	.
.	.	16b-	.
4.r	16d	16f	.
.	16e-	16g	.
.	16c	16e-	.
.	16d	16f	.
.	4B-	4d	.
.	.	.	24ff]
8c	.	.	8aa
8d	4r	4r	8bb-
8D	.	.	8ff
=9	=9	=9	=9
4C	16c	16e-	[3..ee-
.	16d	16f	.
.	16e-	16g	.
.	16d	16f	.
4r	16c	16e-	.
.	16d	16f	.
.	16B-	16d	.
.	16c	16e-	.
4F	4A	4c	.
.	.	.	24ee-]
.	.	.	8ccc
4r	4r	4r	8aa
.	.	.	8ee-
=10	=10	=10	=10
16B-	16d	2b-	2dd
16c	16e-	.	.
16d	16f	.	.
16c	16e-	.	.
16B-	16d	.	.
16c	16e-	.	.
16A	16c	.	.
16B-	16d	.	.
16G	16B-	2dd	[2bb-
16A	16c	.	.
16B-	16d	.	.
16A	16c	.	.
16G	16B-	.	.
16A	16c	.	.
16F	16A	.	.
16G	16B-	.	.
=11	=11	=11	=11
2E-	1G	2.cc	8bb-]
.	.	.	4cc
.	.	.	4dd-
2E	.	.	.
.	.	.	4cc
.	.	[4c	.
.	.	.	8b-
=12	=12	=12	=12
4F	4F	4c]	16a
.	.	.	16b-
.	.	.	16cc
.	.	.	16b-
4r	4r	4r	16a
.	.	.	16b-
.	.	.	16g
.	.	.	16a
16F	16f	16f	16f
16G	16g	16g	16g
16A	16a	16a	16a
16G	16g	16g	16g
16F	16f	16f	16f
16G	16g	16g	16g
16E-	16e-	16e-	16e-
16F	16f	16f	16f
=13	=13	=13	=13
4D	4d	4d	16d
.	.	.	16b-
.	.	.	16ff
.	.	.	16gg
4r	4r	4r	16ff
.	.	.	16dd
.	.	.	16cc
.	.	.	16b-
4D	4f	4b-	16d
.	.	.	16b-
.	.	.	16ff
.	.	.	16gg
4r	4r	4r	16ff
.	.	.	16dd
.	.	.	16cc
.	.	.	16b-
=14	=14	=14	=14
8d	8d	1f	16bb-
.	.	.	16b-
8e-	8e-	.	16aa
.	.	.	16b-
8d	8d	.	16bb-
.	.	.	16b-
8e-	8e-	.	16aa
.	.	.	16b-
2d	4d	.	16bb-
.	.	.	16b-
.	.	.	16a
.	.	.	16b-
.	[4B-	.	16a-
.	.	.	16b-
.	.	.	16f
.	.	.	16b-
=15	=15	=15	=15
4e-	4B-]	4g	8g
.	.	.	16ff#
.	.	.	16gg
4BB	4B	4B	8b
.	.	.	16ff#
.	.	.	16gg
4C	4c	4c	8cc
.	.	.	16ff#
.	.	.	16gg
4D	4d	4d	8dd
.	.	.	16ff#
.	.	.	16gg
=16	=16	=16	=16
4E-	4e-	4e-	8ee-
.	.	.	16ff#
.	.	.	16gg
4BB	4B	4B	8b
.	.	.	16ff#
.	.	.	16gg
4C	4c	4c	8cc
.	.	.	16ff#
.	.	.	16gg
4D	4d	4d	8dd
.	.	.	16ff#
.	.	.	16gg
=17	=17	=17	=17
4E-	4e-	4e-	8ee-
.	.	.	16ff#
.	.	.	16gg
4D	4d	4d	8dd
.	.	.	16ff#
.	.	.	16gg
4E-	4e-	4e-	8ee-
.	.	.	16ff#
.	.	.	16gg
4E	4e	4e	8e
.	.	.	16aa
.	.	.	16bb-
=18	=18	=18	=18
8F	8f	8f	2f
8F	8f	8b-	.
8F	8f	8b-	.
8F	8f	8b-	.
8FF	8f	8a	2cc
8FF	8f	8a	.
8FF	8f	8a	.
8FF	8f	8a	.
=19	=19	=19	=19
4BB-	4B-	4b-	4b-
2.r	2.r	8dd	16ff
.	.	.	16gg
.	.	8b-	16aa
.	.	.	16bb-
.	.	8ee-	8gg
.	.	8cc	8ccc
.	.	8ff	8aa
.	.	8dd	8ddd
=20	=20	=20	=20
1r	1r	8gg	8bb-
.	.	8r	8r
.	.	8ff	16aa
.	.	.	16bb-
.	.	8dd	16ccc
.	.	.	16ddd
.	.	8gg	8bb-
.	.	8ee-	8eee-
.	.	8aa	8ccc
.	.	8ff	8fff
=21	=21	=21	=21
2r	2r	4bb-	4ddd
.	.	8r	3..r
.	.	24ff	.
.	.	24gg	.
.	.	24ff	.
4BB-	4b- 4d	4bb-	.
4r	4r	4r	.
.	.	.	24r
.	.	.	24fff
.	.	.	24ggg
.	.	.	24fff
=22	=22	=22	=22
8D	8d	8ff 8b-	8bbb-
8r	8r	8r	24fff
.	.	.	24ggg
.	.	.	24fff
8D	8d	8ff 8b-	8bbb-
8r	8r	8r	24fff
.	.	.	24ggg
.	.	.	24fff
8D	8d	8ff 8b-	8bbb-
4r	4r	4r	24fff
.	.	.	24ggg
.	.	.	24fff
.	.	.	8dddd
8E	8e	8e	8e
=23	=23	=23	=23
8F	8f	8f	2f
8F	8f	8b-	.
8F	8f	8b-	.
8F	8f	8b-	.
8F	8f	8a	2cc
8F	8f	8a	.
8F	8f	8a	.
8F	8f	8a	.
=24	=24	=24	=24
4BB-	4B-	4b-	16b-
.	.	.	16dd
.	.	.	16cc
.	.	.	16dd
4r	4r	8B-	16f
.	.	.	16dd
.	.	8c	16e-
.	.	.	16cc
4BB-	4B-	4d	16d
.	.	.	16b-
.	.	.	16a
.	.	.	16b-
4r	4r	8d	16f
.	.	.	16b-
.	.	8c	16e-
.	.	.	16b-
=25	=25	=25	=25
4BB-	4B-	16B-	4d
.	.	16f	.
.	.	16e-	.
.	.	16f	.
4BB-	8F	16d	4b- 4d
.	.	16e-	.
.	8E-	16c	.
.	.	16d	.
4BB-	4D	4B-	4b- 4d
8r	4r	4r	4r
16A	.	.	.
16B-	.	.	.
=26	=26	=26	=26
8BB-	1r	4r	4r
4BB-	.	.	.
.	.	4d	4f
4BB-	.	.	.
.	.	4e-	4g
4BB-	.	.	.
.	.	4d	4f
16A	.	.	.
16B-	.	.	.
=27	=27	=27	=27
8C	4r	4r	4r
4C	.	.	.
.	4e	4b-	4dd-
4C	.	.	.
.	4f	4a-	4cc
4C	.	.	.
.	4g	4g	4b-
16E	.	.	.
16F	.	.	.
=28	=28	=28	=28
8FF	4r	4r	4r
4FF	.	.	.
.	4a-	4f	4a-
4FF	.	.	.
.	4g	4g	4b-
4FF	.	.	.
.	4f	4a-	4cc
16A	.	.	.
16B-	.	.	.
=29	=29	=29	=29
8BB-	4r	4r	4r
4BB-	.	.	.
.	4d	4a-	4cc
4BB-	.	.	.
.	4e-	4g	4b-
4BB-	.	.	.
.	4f	4f	4a-
16A	.	.	.
16B-	.	.	.
=30	=30	=30	=30
8BB-	4r	4r	4r
4BB-	.	.	.
.	4g	4e-	4g
4BB-	.	.	.
.	4f	4f	4a-
4BB-	.	.	.
.	4e-	4g	4b-
16A	.	.	.
16B-	.	.	.
=31	=31	=31	=31
8BB-	4r	4r	4r
4BB-	.	.	.
.	4f	4d	4f
4BB-	.	.	.
.	4e-	4e-	4g
4BB-	.	.	.
.	4d	4f	4a-
16A	.	.	.
16B-	.	.	.
=32	=32	=32	=32
8BB-	4r	4r	4r
4BB-	.	.	.
.	2e-	4e-	4g
4BB-	.	.	.
.	.	4c	4a
4BB-	.	.	.
.	4c	4a	4ee-
16A	.	.	.
16B-	.	.	.
=33	=33	=33	=33
8BB-	8B-	8b-	8dd
16A	16a	16a	16a
16B-	16b-	16b-	16b-
8BB-	8B-	8B-	8B-
16A	16a	16a	16a
16B-	16b-	16b-	16b-
4BB-	4B-	4B-	4B-
4r	4r	4r	8r
.	.	.	16dd
.	.	.	16ee-
=34	=34	=34	=34
4E-	4r	4r	8e-
.	.	.	4e-
2.r	4G	4B-	.
.	.	.	4e-
.	4A-	4c	.
.	.	.	4e-
.	4G	4B-	.
.	.	.	16dd
.	.	.	16ee-
=35	=35	=35	=35
1r	4r	4r	8e-
.	.	.	4e-
.	4B-	4d-	.
.	.	.	4e-
.	4A-	4c	.
.	.	.	4e-
.	4G	4B-	.
.	.	.	16ee
.	.	.	16ff
=36	=36	=36	=36
4F	4r	4r	8f
.	.	.	4f
2.r	4A	4c	.
.	.	.	4f
.	4B-	4d	.
.	.	.	4f
.	4A	4c	.
.	.	.	16ee
.	.	.	16ff
=37	=37	=37	=37
1r	4r	4r	8f
.	.	.	4f
.	4c	4e-	.
.	.	.	4f
.	4B-	4d	.
.	.	.	4f
.	4A	4c	.
.	.	.	16ff#
.	.	.	16gg
=38	=38	=38	=38
4G	4r	4r	8g
.	.	.	4g
2.r	4B	4d	.
.	.	.	4g
.	4c	4e-	.
.	.	.	4g
.	4B	4d	.
.	.	.	16ff#
.	.	.	16gg
=39	=39	=39	=39
1r	4r	4r	8g
.	.	.	4g
.	4d	4f	.
.	.	.	4g
.	4c	4e-	.
.	.	.	4g
.	4B	4d	.
.	.	.	8ff
=40	=40	=40	=40
4C	16c	16e-	4ee-
.	16d	16f	.
.	16e-	16g	.
.	16d	16f	.
4r	16c	16e-	4r
.	16d	16f	.
.	16B-	16d	.
.	16c	16e-	.
16F	4A-	4c	16aa-
16G	.	.	16bb-
16A-	.	.	16ccc
16G	.	.	16bb-
16F	4r	4r	16aa-
16G	.	.	16bb-
16E-	.	.	16gg
16F	.	.	16aa-
=41	=41	=41	=41
4D	16B-	16d	4ff
.	16c	16e-	.
.	16d	16f	.
.	16c	16e-	.
4r	16B-	16d	4r
.	16c	16e-	.
.	16A-	16c	.
.	16B-	16d	.
16E-	4G	4B-	16gg
16F	.	.	16aa-
16G	.	.	16bb-
16F	.	.	16aa-
16E-	4r	4r	16gg
16F	.	.	16aa-
16D	.	.	16ff
16E-	.	.	16gg
=42	=42	=42	=42
4C	16A-	16c	4ee-
.	16B-	16d	.
.	16c	16e-	.
.	16B-	16d	.
4r	16A-	16c	4r
.	16B-	16d	.
.	16G	16B-	.
.	16A-	16c	.
16D	4F	4A-	16ff
16E-	.	.	16gg
16F	.	.	16aa-
16E-	.	.	16gg
16D	4r	4r	16ff
16E-	.	.	16gg
16C	.	.	16ee-
16D	.	.	16ff
=43	=43	=43	=43
4BB-	2r	16dd	16dd
.	.	16ee-	16ee-
.	.	16ff	16ff
.	.	16ee-	16ee-
2.r	.	16dd	16dd
.	.	16ee-	16ee-
.	.	16cc	16cc
.	.	16dd	16dd
.	16b-	16b-	16b-
.	16cc	16cc	16cc
.	16dd	16dd	16dd
.	16cc	16cc	16cc
.	16b-	16b-	16b-
.	16cc	16cc	16cc
.	16a-	16a-	16a-
.	16b-	16b-	16b-
=44	=44	=44	=44
16G	16g	16g	16g
16F	16f	16f	16f
16G	16g	16g	16g
16A-	16a-	16a-	16a-
16B-	16b-	16b-	16b-
16G	16g	16g	16g
16F	16f	16f	16f
16E-	16e-	16e-	16e-
16D	16d	16d	16d
16E-	16e-	16e-	16e-
16F	16f	16f	16f
16E-	16e-	16e-	16e-
16D	16d	16d	16d
16C	16c	16c	16c
16BB-	16B-	16B-	16B-
16AA-	16A-	16A-	16A-
=45	=45	=45	=45
4GG	4G	4G	16G
.	.	.	16e-
.	.	.	16b-
.	.	.	16cc
4r	4r	4r	16b-
.	.	.	16g
.	.	.	16f
.	.	.	16e-
4GG	4B-	4e-	16G
.	.	.	16e-
.	.	.	16b-
.	.	.	16cc
4r	4r	4r	16b-
.	.	.	16g
.	.	.	16f
.	.	.	16e-
=46	=46	=46	=46
8GG	8G	1B-	16ee-
.	.	.	16e-
8AA-	8A-	.	16dd
.	.	.	16e-
8GG	8G	.	16ee-
.	.	.	16e-
8AA-	8A-	.	16dd
.	.	.	16e-
2GG	4G	.	16ee-
.	.	.	16e-
.	.	.	16d
.	.	.	16e-
.	[4E-	.	16d-
.	.	.	16e-
.	.	.	16B-
.	.	.	16e-
=47	=47	=47	=47
4AA-	4E-]	4c	8c
.	.	.	16b
.	.	.	16cc
4EE	4E	4e	8e
.	.	.	16b
.	.	.	16cc
4FF	4F	4f	8f
.	.	.	16b
.	.	.	16cc
4GG	4G	4g	8g
.	.	.	16b
.	.	.	16cc
=48	=48	=48	=48
4AA-	4A-	4a-	8a-
.	.	.	16b
.	.	.	16cc
4EE	4E	4e	8e
.	.	.	16b
.	.	.	16cc
4FF	4F	4f	8f
.	.	.	16b
.	.	.	16cc
4GG	4G	4g	8g
.	.	.	16b
.	.	.	16cc
=49	=49	=49	=49
4AA-	4A-	4a-	8a-
.	.	.	16b
.	.	.	16cc
4GG	4G	4G	8g
.	.	.	16b
.	.	.	16cc
4AA-	4A-	4A-	8a-
.	.	.	16b
.	.	.	16cc
4AA	4A	4A	8A
.	.	.	16dd
.	.	.	16ee-
=50	=50	=50	=50
8BB-	8B-	8B-	2B-
8BB-	8B-	8e-	.
8BB-	8B-	8e-	.
8BB-	8B-	8e-	.
8BB-	8B-	8d	2f
8BB-	8B-	8d	.
8BB-	8B-	8d	.
8BB-	8B-	8d	.
=51	=51	=51	=51
4E-	4e-	4e-	4e-
2.r	2.r	8g	16b-
.	.	.	16cc
.	.	8e-	16dd
.	.	.	16ee-
.	.	8a-	8cc
.	.	8f	8ff
.	.	8b-	8dd
.	.	8g	8gg
=52	=52	=52	=52
1r	1r	8cc	8ee-
.	.	8r	8r
.	.	8b-	16dd
.	.	.	16ee-
.	.	8g	16ff
.	.	.	16gg
.	.	8cc	8ee-
.	.	8a-	8aa-
.	.	8dd	8ff
.	.	8b-	8bb-
=53	=53	=53	=53
2r	2r	4ee-	4gg
.	.	8r	3..r
.	.	24b-	.
.	.	24cc	.
.	.	24b-	.
4E-	4G 4e-	4ee-	.
4r	4r	4r	.
.	.	.	24r
.	.	.	24bb-
.	.	.	24ccc
.	.	.	24bb-
=54	=54	=54	=54
8G	8G	8b- 8e-	8eee-
8r	8r	8r	24bb-
.	.	.	24ccc
.	.	.	24bb-
8G	8G	8e- 8b-	8eee-
8r	8r	8r	24bb-
.	.	.	24ccc
.	.	.	24bb-
8G	8G	8b- 8e-	8eee-
4r	4r	4r	24bb-
.	.	.	24ccc
.	.	.	24bb-
.	.	.	8ggg
8A	8A	8A	8A
=55	=55	=55	=55
8B-	8B-	8B-	2B-
8BB-	8B-	8e-	.
8BB-	8B-	8e-	.
8BB-	8B-	8e-	.
8BB-	8B-	8d	2f
8BB-	8B-	8d	.
8BB-	8B-	8d	.
8BB-	8B-	8d	.
=56	=56	=56	=56
4E-	4e-	4e-	16e-
.	.	.	16g
.	.	.	16f
.	.	.	16g
4r	4r	8e-	16B-
.	.	.	16g
.	.	8f	16A-
.	.	.	16f
4E-	4e-	4g	16G
.	.	.	16e-
.	.	.	16d
.	.	.	16e-
4r	8G	8G	16B-
.	.	.	16e-
.	8F	8A-	16A-
.	.	.	16e-
=57	=57	=57	=57
4EE-	4E-	16G	4G
.	.	16e-	.
.	.	16d	.
.	.	16e-	.
4EE-	8G	16B-	4e- 4G
.	.	16e-	.
.	8F	16A-	.
.	.	16e-	.
4EE-	4E-	4G	4e- 4G
4r	4r	4r	4r
==	==	==	==
*-	*-	*-	*-
!!!RWG1: This file contains only pitch and duration data.
!!!RWG2: Transposing instruments are not transposed.
!!!RWG3: Spines may have incompatible meters.
!!!RWG4: Durations of rests and tied notes may be interpreted.
!!!RWG: Key is interpreted using the Humdrum key tool.
!!!AFT: stage1
!!!END: 1997/04/15
!!!KEY: 1193190620
!!!EMD: Converted from MuseData to Humdrum Dec 16, 2000, by Andreas Kornstaedt using muse2kern.
!!!EMD: Manual editing by Craig Sapp, Nov 2001
